X:1
T:The Limb of the Law
M:6/8
L:1/8
K:D
 z4 AA| ddd AAA| GFG E2 E| E^GB EGB| cAA A2 B| BBc dcB| ABA F2 F| E^GB EGB|\
 ccA A2 B/2B/2| BBc dcB| ABA F2 F| E^GB EG B/2B/2| cAA ABc| d/2d/2 dd A/2A/2 A A/2A/2|\
 GFG E2 E| E^GB EGB| cAA ABc| d2 d A2 A| GFG E2 F| G/2 E3/2 E E2 A|\
 AF F2 Fd| ddd AAA| GFG E2 E| E^GB cBA| d3 d z2|
